X: 201
T: Song of the Grass Dance (a)
C: Teton Sioux band 1911-1914
N: Derived from sioux196.krn
O: South Dakota, U.S.A.
N: Teton Sioux Music by Frances Densmore, 1918
Z: transcribed to **kern format by Craig Sapp
L: 1/8
M: 3/4
Q: 1/4=58
K: D clef=bass
%%linebreak <none>
F2^G2F3/ F/ [I:setbarnb 2]| 
F6 ||  
[M:2/4]B,< B,B,2 ||  
[M:3/4]F2F2(3B, B, B, ||  
[M:2/4]B,4 | 
D< B,B,2 | 
A,2F, F, ||  
[M:3/4]F,4B, B, ||  
[M:2/4]B,2A,2 | 
B, B,A,2 | 
F,2A,2 | 
F,2F,3/ F,/ ||  
[M:3/4]F,6 ||  
[M:2/4]F,4 ||  
[M:3/4]D DD2B,3/ B,/ | 
B,6 ||  
[M:2/4]A,2F, F, ||  
[M:3/4]F,4B, B, ||  
[M:2/4]B,2A,2 | 
B, B,A,2 | 
F,2A,2 | 
F,2F,3/ F,/ ||  
[M:3/4]F,6 ||  
[M:2/4]F,4 | 
D2D2 | 
B,2B,2 ||  
[M:3/4]B,6 ||  
[M:2/4]A,2F,/ F,3/- | 
F,2B, B, | 
B,2A,/ A,3/ | 
B, B,A,2 | 
F,2A, A, | 
F,2(3F, F, F, ||  
[M:3/4]F,6 | 
F,6 |]  



